X:289
T: AUF DER EISENBAHN BIN ICH GEFAHREN
N: E1431
O: Europa, Mitteleuropa, Deutschland, Hessen, Rheinland
R: Staende -, Soldaten - Lied, Liebe, Abschied
M: 3/4
L: 1/16
K: G
D2D2 | G2B2B3BB2B2 | A2B2c4
d2d2 | B2B2B2B2d2B2 | A4z4
A2B2 | c2e2e3ed2c2 | B2d2d4
B2B2 | A4d2d2c2c2 | B8

